icons/vip-crown-line.svg

<svg viewBox="0 0 24 24" fill="currentColor" xmlns="http://www.w3.org/2000/svg"><path d="M2.00488 19H22.0049V21H2.00488V19ZM2.00488 5L7.00488 8.5L12.0049 2L17.0049 8.5L22.0049 5V17H2.00488V5ZM4.00488 8.84131V15H20.0049V8.84131L16.5854 11.2349L12.0049 5.28024L7.42435 11.2349L4.00488 8.84131Z"/></svg>

<svg xmlns="http://www.w3.org/2000/svg" viewBox="0 0 24 24">
    <g>
        <path fill="none" d="M0 0h24v24H0z"/>
        <path d="M2 19h20v2H2v-2zM2 5l5 3.5L12 2l5 6.5L22 5v12H2V5zm2 3.841V15h16V8.841l-3.42 2.394L12 5.28l-4.58 5.955L4 8.84z"/>
    </g>
</svg>
